X: 42711
T: Whistling Postman, The
R: reel
M: 4/4
K: Dmajor
ag|:fd (3ddd edge|dBAF E2 FE|(3DED FD ADFD|ABdf g2 ag|
fd (3ddd edge|dBAF EGFE|(3DED FA defd|1 edBc d2 ag:|2 edBc d2 Ad||
|:fedc dfaf|bfaf gfef|dfaf g2 bg|afdf (3efe de|
[1 f2 dc dfaf|bfaf gfeg|fdAG FAdf|edBc d2 Ad:|
[2 a2 ^gb afdf|gefd edBc|dBAG FAdf|edBc d2||

